icons/add-rasters-16.svg

<svg xmlns="http://www.w3.org/2000/svg" viewBox="0 0 16 16"><path d="M13 12h3v1h-3v3h-1v-3H9v-1h3V9h1zM7 1v2h1V2h2v1h1V2h2v2h-1v1h2V1zM1 7v4h7V7zm1 3V8h2v2zm5 0H5V8h2zm4-6v4H9V7h1V5H8v1H7V5H5v1H4V4z"/><path d="M5 8h2v2H5zm7-4h1V2h-2v1h1zM9 7h1V5H8v1h1z" opacity=".5"/><path fill="none" d="M0 0h16v16H0z"/></svg>

<svg id="icons" xmlns="http://www.w3.org/2000/svg" viewBox="0 0 16 16"><defs><style>.cls-1{opacity:0.5;}.cls-2{fill:none;}</style></defs><path d="M13,12h3v1H13v3H12V13H9V12h3V9h1ZM7,1V3H8V2h2V3h1V2h2V4H12V5h2V1ZM1,7v4H8V7Zm1,3V8H4v2Zm5,0H5V8H7Zm4-6V8H9V7h1V5H8V6H7V5H5V6H4V4Z"/><path class="cls-1" d="M5,8H7v2H5Zm7-4h1V2H11V3h1ZM9,7h1V5H8V6H9Z"/><rect class="cls-2" width="16" height="16"/></svg>
